Cem.svg

<?xml version="1.0" encoding="UTF-8"?>
<svg viewBox="0 0 512 512" xmlns="http://www.w3.org/2000/svg">
<path d="m414.79 168.61c0-87.596-71.012-158.61-158.6-158.61-87.601 0-158.99 70.243-158.99 157.84 0 25.003 5.803 48.646 16.108 69.682l0.369 0.766 0.165 0.289c3.064 6.225 6.519 12.229 10.344 17.964l135.67 235.46 131.91-241.05c-31.764 58.632 4.638-8.063 6.708-12.25l0.222-0.412-0.403 0.384c10.699-21.803 16.495-45.062 16.495-70.063zm-158.6 114.46c-63.818 0-115.55-51.736-115.55-115.56 0-63.811 51.736-115.54 115.55-115.54 63.807 0 115.54 51.733 115.54 115.54 0 63.823-51.738 115.56-115.54 115.56z" fill="#be2126" stroke="#be2126" stroke-width="20px"/>
<circle cx="256.03" cy="170.55" r="140.75" fill="#fff" stroke="#be2126" stroke-width="20px"/>
<g transform="matrix(.65138 0 0 .65138 88.437 -9.3937)" fill="#be2126">
<path d="m166.26 409.52c3.615-46.41 42.396-82.955 89.74-82.955 47.336 0 86.117 36.545 89.732 82.955h33.594c-4.094-64.558-57.742-115.65-123.33-115.65-65.594 0-119.24 51.096-123.33 115.65h33.594z"/>
<rect x="188.04" y="151.85" width="135.92" height="32.698"/>
<rect x="239.65" y="102.48" width="32.697" height="215.72"/>
</g>
</svg>

<?xml version="1.0" encoding="utf-8"?>
<svg viewBox="0 0 512 512" width="512px" height="512px" xmlns="http://www.w3.org/2000/svg">
  <path d="M 414.794 168.606 C 414.794 81.01 343.782 10 256.19 10 C 168.589 10 97.2 80.243 97.2 167.837 C 97.2 192.84 103.003 216.483 113.308 237.519 L 113.677 238.285 L 113.842 238.574 C 116.906 244.799 120.361 250.803 124.186 256.538 L 259.86 492 L 391.772 250.947 C 360.008 309.579 396.41 242.884 398.48 238.697 L 398.702 238.285 L 398.299 238.669 C 408.998 216.866 414.794 193.607 414.794 168.606 Z M 256.194 283.064 C 192.376 283.064 140.64 231.328 140.64 167.505 C 140.64 103.694 192.376 51.963 256.194 51.963 C 320.001 51.963 371.739 103.696 371.739 167.505 C 371.739 231.328 320.001 283.064 256.194 283.064 Z" style="stroke-width: 20px; stroke: rgb(190, 33, 38); fill: rgb(190, 33, 38);"/>
  <circle style="fill: rgb(255, 255, 255); stroke-width: 20px; stroke: rgb(190, 33, 38);" cx="256.031" cy="170.551" r="140.748"/>
  <g transform="matrix(0.6513769626617432, 0, 0, 0.6513769626617432, 88.4367218017578, -9.39374351501465)">
    <path d="M166.264,409.521c3.615-46.41,42.396-82.955,89.74-82.955c47.336,0,86.117,36.545,89.732,82.955h33.594 c-4.094-64.558-57.742-115.653-123.33-115.653c-65.594,0-119.238,51.096-123.33,115.653H166.264z" style="fill: rgb(190, 33, 38);"/>
    <rect x="188.041" y="151.848" width="135.918" height="32.698" style="fill: rgb(190, 33, 38);"/>
    <rect x="239.65" y="102.479" width="32.697" height="215.719" style="fill: rgb(190, 33, 38);"/>
  </g>
</svg>
